Codeartpro/images/main/logo-1.svg

<svg width="180" height="62" viewBox="0 0 180 62" fill="none" xmlns="http://www.w3.org/2000/svg">
<path opacity="0.6" fill-rule="evenodd" clip-rule="evenodd" d="M51.5 0H56.118C58.929 0 61.7399 0.60239 61.7399 3.9135C61.7399 6.22029 60.1334 7.32433 58.8292 7.72626C60.5355 8.12718 62.5432 9.03076 62.5432 12.0407C62.5432 16.2554 58.7284 16.5555 56.118 16.5555H51.5V0ZM54.6123 6.82166H55.3148C57.0221 6.82166 58.6276 6.52148 58.6276 4.31442C58.6276 2.10735 57.3224 1.70542 55.3148 1.70542H54.6123V6.82166ZM54.6123 14.5489H55.3148C57.4232 14.5489 59.4309 14.3485 59.4309 11.6387C59.4309 9.43168 58.0259 8.62883 55.3148 8.62883H54.6123V14.5489ZM67.1612 5.11726H70.0719V8.02644H70.1727C70.976 6.52148 71.8791 5.01652 73.9875 4.81607V7.82598C71.0758 7.82598 70.0719 8.92901 70.0719 11.4373V16.5545H67.1612V5.11726ZM77.8023 5.11726H80.713V16.5555H77.8023V5.11726ZM77.8023 0H80.713V2.609H77.8023V0ZM85.0317 10.8369C85.0317 6.52148 87.1392 4.81607 90.3523 4.81607C93.6641 4.81607 95.6728 6.52148 95.6728 10.8369C95.6728 15.251 93.6641 16.8567 90.3523 16.8567C87.1392 16.8557 85.0317 15.251 85.0317 10.8369ZM90.3512 15.7527C92.3589 15.7527 92.4587 13.3452 92.4587 10.8369C92.4587 8.32763 92.3589 6.02084 90.3512 6.02084C88.4433 6.02084 88.2428 8.32865 88.2428 10.8369C88.2428 13.3452 88.4444 15.7527 90.3512 15.7527ZM53.809 25.9862H49.7937V24.0803H60.9377V25.9862H56.9213V40.6359H53.809V25.9862ZM70.8752 40.1352C69.57 40.6359 68.8675 40.9381 67.1612 40.9381C64.1497 40.9381 61.3378 39.2306 61.3378 34.4156C61.3378 31.2042 62.7427 28.8964 66.4577 28.8964C69.6708 28.8964 71.1766 30.6018 71.1766 33.2108V33.7114H64.2495C64.2495 35.6194 65.4549 39.4311 68.667 39.4311C69.4703 39.4311 70.1727 39.2306 70.8752 38.9305V40.1352ZM68.3656 32.5097C68.3656 31.6051 67.9635 30.1002 66.3569 30.1002C64.7504 30.1002 64.3493 31.9073 64.2495 32.5097H68.3656ZM84.2274 40.235C83.022 40.6369 82.119 40.9381 80.6132 40.9381C77.3004 40.9381 74.69 39.0302 74.69 34.5153C74.69 31.2042 76.2965 28.8974 79.81 28.8974C83.2236 28.8974 84.3272 30.5031 84.3272 33.1111H81.2159C81.2159 31.1055 81.0144 30.1012 79.7102 30.1012C78.405 30.1012 77.8023 31.8066 77.8023 33.512C77.8023 36.4232 79.308 39.4321 81.9184 39.4321C82.8215 39.4321 83.525 39.2317 84.2274 39.0302V40.235ZM88.2428 24.0803H91.1535V31.8056H91.2553C91.6574 30.903 92.6613 28.8964 94.9673 28.8964C97.1765 28.8964 97.88 30.3016 97.88 32.8099V40.6359H94.9673V33.511C94.9673 32.1078 94.8675 31.0027 93.7639 31.0027C91.6564 31.0027 91.1535 34.3138 91.1535 36.12V40.6359H88.2428V24.0803ZM103.602 29.1976H106.514V31.8056H106.614C107.117 30.8023 108.02 28.8964 110.328 28.8964C112.537 28.8964 113.239 30.3016 113.239 32.8099V40.6359H110.328V33.511C110.328 32.1078 110.228 31.0027 109.123 31.0027C107.015 31.0027 106.514 34.3138 106.514 36.12V40.6359H103.602V29.1976ZM118.36 34.9162C118.36 30.6018 120.369 28.8964 123.681 28.8964C126.892 28.8964 128.901 30.6018 128.901 34.9162C128.901 39.3324 126.892 40.9381 123.681 40.9381C120.369 40.9381 118.36 39.3324 118.36 34.9162ZM123.681 39.833C125.588 39.833 125.789 37.4265 125.789 34.9162C125.789 32.408 125.588 30.1002 123.681 30.1002C121.673 30.1002 121.472 32.408 121.472 34.9162C121.472 37.4265 121.673 39.833 123.681 39.833ZM133.218 24.0803H136.13V40.6359H133.218V24.0803ZM140.446 34.9162C140.446 30.6018 142.554 28.8964 145.768 28.8964C148.982 28.8964 151.089 30.6018 151.089 34.9162C151.089 39.3324 148.982 40.9381 145.768 40.9381C142.554 40.9381 140.446 39.3324 140.446 34.9162ZM145.767 39.833C147.775 39.833 147.874 37.4265 147.874 34.9162C147.874 32.408 147.774 30.1002 145.767 30.1002C143.759 30.1002 143.659 32.408 143.659 34.9162C143.659 37.4265 143.759 39.833 145.767 39.833ZM165.344 41.0378C165.344 43.8483 164.138 46.0543 159.621 46.0543C158.465 46.0574 157.315 45.8886 156.208 45.5537V42.845C156.809 43.3456 158.316 44.4507 159.92 44.4507C162.129 44.4507 162.432 42.845 162.432 40.7386V39.0312H162.33C161.928 39.7343 161.427 40.6369 159.62 40.6369C156.508 40.6369 155.404 38.2283 155.404 34.7168C155.404 31.8076 156.406 28.8974 159.32 28.8974C161.125 28.8974 161.829 30.2019 162.33 31.1055H162.432V29.1986H165.343V41.0378H165.344ZM160.525 39.0302C162.231 39.0302 162.231 36.4232 162.231 35.018C162.231 33.2118 162.129 30.7036 160.424 30.7036C158.719 30.7036 158.517 33.2118 158.517 34.9172C158.517 36.5219 158.718 39.0302 160.525 39.0302ZM173.675 40.8373L169.358 29.1976H172.37L174.88 37.0236H174.982L177.692 29.1976H180L174.277 45.8529H171.867L173.675 40.8373ZM40.5576 0.200456H0V60.301C2.00767 61.0042 4.11613 61.3044 6.32436 61.3044C15.9331 61.3044 23.9179 54.4573 25.668 45.3736C26.0457 43.4036 26.115 41.6178 25.9378 39.6458C25.2862 32.4578 20.6977 26.4573 14.4568 23.5777C16.3647 22.5744 18.0711 21.6708 20.4809 20.467C20.4809 20.467 25.5 6.21825 10.3417 6.21825L20.4809 0.198422C23.4924 0.298142 25.4003 1.10099 27.5087 3.20834C29.6172 5.31568 30.4195 7.32127 30.5202 10.3322L20.4809 20.466C30.7208 23.8778 35.8408 32.3062 35.3389 40.6338H40.5586V0.200456H40.5576Z" fill="white"/>
</svg>

<svg width="180" height="62" fill="none" xmlns="http://www.w3.org/2000/svg"><path opacity=".6" fill-rule="evenodd" clip-rule="evenodd" d="M51.5 0h4.618c2.811 0 5.622.602 5.622 3.913 0 2.307-1.607 3.411-2.91 3.813 1.706.401 3.713 1.305 3.713 4.315 0 4.214-3.815 4.514-6.425 4.514H51.5V0zm3.112 6.822h.703c1.707 0 3.313-.3 3.313-2.508 0-2.207-1.306-2.609-3.313-2.609h-.703v5.117zm0 7.727h.703c2.108 0 4.116-.2 4.116-2.91 0-2.207-1.405-3.01-4.116-3.01h-.703v5.92zm12.55-9.432h2.91v2.91h.1c.804-1.506 1.707-3.01 3.816-3.21v3.009c-2.912 0-3.916 1.103-3.916 3.611v5.118h-2.91V5.117zm10.64 0h2.911v11.438h-2.91V5.117zm0-5.117h2.911v2.609h-2.91V0zm7.23 10.837c0-4.316 2.107-6.02 5.32-6.02 3.312 0 5.32 1.704 5.32 6.02 0 4.414-2.008 6.02-5.32 6.02-3.213-.001-5.32-1.606-5.32-6.02zm5.32 4.916c2.007 0 2.107-2.408 2.107-4.916 0-2.51-.1-4.816-2.108-4.816-1.908 0-2.108 2.308-2.108 4.816s.201 4.916 2.108 4.916zM53.808 25.986h-4.015V24.08h11.144v1.906H56.92v14.65h-3.11v-14.65zm17.066 14.15c-1.305.5-2.007.802-3.714.802-3.011 0-5.823-1.707-5.823-6.522 0-3.212 1.405-5.52 5.12-5.52 3.213 0 4.719 1.706 4.719 4.315v.5h-6.928c0 1.908 1.206 5.72 4.418 5.72.803 0 1.506-.2 2.208-.5v1.204zm-2.51-7.626c0-.905-.401-2.41-2.008-2.41s-2.008 1.807-2.108 2.41h4.117zm15.862 7.725c-1.205.402-2.108.703-3.614.703-3.313 0-5.923-1.908-5.923-6.423 0-3.31 1.606-5.618 5.12-5.618 3.414 0 4.517 1.606 4.517 4.214h-3.111c0-2.005-.202-3.01-1.506-3.01-1.305 0-1.908 1.706-1.908 3.411 0 2.911 1.506 5.92 4.116 5.92.903 0 1.607-.2 2.31-.402v1.205zm4.016-16.155h2.91v7.726h.102c.402-.903 1.406-2.91 3.712-2.91 2.21 0 2.913 1.406 2.913 3.914v7.826h-2.913V33.51c0-1.403-.1-2.508-1.203-2.508-2.108 0-2.61 3.31-2.61 5.117v4.516h-2.911V24.08zm15.359 5.118h2.912v2.608h.1c.503-1.004 1.406-2.91 3.714-2.91 2.209 0 2.911 1.406 2.911 3.914v7.826h-2.911V33.51c0-1.403-.1-2.508-1.205-2.508-2.108 0-2.609 3.31-2.609 5.117v4.516h-2.912V29.198zm14.758 5.718c0-4.314 2.009-6.02 5.321-6.02 3.211 0 5.22 1.706 5.22 6.02 0 4.416-2.009 6.022-5.22 6.022-3.312 0-5.321-1.606-5.321-6.022zm5.321 4.917c1.907 0 2.108-2.407 2.108-4.917 0-2.508-.201-4.816-2.108-4.816-2.008 0-2.209 2.308-2.209 4.816 0 2.51.201 4.917 2.209 4.917zm9.537-15.753h2.912v16.556h-2.912V24.08zm7.228 10.836c0-4.314 2.108-6.02 5.322-6.02s5.321 1.706 5.321 6.02c0 4.416-2.107 6.022-5.321 6.022-3.214 0-5.322-1.606-5.322-6.022zm5.321 4.917c2.008 0 2.107-2.407 2.107-4.917 0-2.508-.1-4.816-2.107-4.816-2.008 0-2.108 2.308-2.108 4.816 0 2.51.1 4.917 2.108 4.917zm19.577 1.205c0 2.81-1.206 5.016-5.723 5.016a11.678 11.678 0 01-3.413-.5v-2.709c.601.5 2.108 1.606 3.712 1.606 2.209 0 2.512-1.606 2.512-3.712V39.03h-.102c-.402.703-.903 1.606-2.71 1.606-3.112 0-4.216-2.409-4.216-5.92 0-2.91 1.002-5.82 3.916-5.82 1.805 0 2.509 1.305 3.01 2.209h.102v-1.907h2.911v11.839h.001zm-4.819-2.008c1.706 0 1.706-2.607 1.706-4.012 0-1.806-.102-4.314-1.807-4.314-1.705 0-1.907 2.508-1.907 4.213 0 1.605.201 4.113 2.008 4.113zm13.15 1.807l-4.317-11.64h3.012l2.51 7.827h.102l2.71-7.826H180l-5.723 16.655h-2.41l1.808-5.016zM40.558.2H0v60.101c2.008.703 4.116 1.003 6.324 1.003 9.61 0 17.594-6.847 19.344-15.93.378-1.97.447-3.756.27-5.728-.652-7.188-5.24-13.189-11.481-16.068 1.908-1.004 3.614-1.907 6.024-3.111 0 0 5.019-14.249-10.14-14.249l10.14-6.02c3.011.1 4.92.903 7.028 3.01 2.108 2.108 2.91 4.113 3.011 7.124L20.48 20.466c10.24 3.412 15.36 11.84 14.859 20.168h5.22V.2h-.001z" fill="#fff"/></svg>
